!!!OTL: Alphoruklang.
!!!OTL-incipit: ES BLAEST DER SENN AUF HOHER ALP
!!!COM: Volksweise
!!!ARE: Europa, Mitteleuropa, Deutschland
!!!SCT: F0893
!!!YEM: Copyright 1995, estate of Helmut Schaffrath.
**kern	**text
*ICvox	*
*M4/4	*
*met(c)	*
*k[b-]	*
*F:	*
!LO:TX:a:t=Langsam.	!
{4f	1._Es
=1	=1
4f	bläſt
4f	der
4g	Senn
4cc	auf
=2	=2
(>4.a	ho-
8g	-her
4f)}	Alp
{4cc	den
=3	=3
4b-	Rei-
4b-/	-gen
4a	nie-
4cc	-der-
=4	=4
2.g}	-wärts;
{4cc	es
=5	=5
4cc	dringt
4a	durch
(8cc/L	Berg
8b-J)	.
4g	und
=6	=6
(4.a	Luſt
8b-/	und
4cc)}	Thal,
{4ff	es
=7	=7
4cc	dringt
4a	mir
(8cc/L	in
8b-J)	.
4g	das
=8	=8
2f;	Herʒ.
4r}	.
==	==
!!!AGN: Natur - Lied
!!!ONB: ESAC (Essen Associative Code) Database: FINK
!!!AMT: simple quadruple
!!!AIN: vox
!!!EED: Helmut Schaffrath
!!!EEV: 1.0
!!Text: C. Vogt?
!!!GTL: Romanzen und Balladen.
!!!source: Musikalischer Hausschatz der Deutschen. Eine Sammlung von über 1000 Liedern und Gesängen mit Singstimmen und Klavierbegleitung. Leipzig, Litterarisches Verlags-Haus.
!!!page: 642
!!!ENC: Anna Maria Matuszewska
!!!EEV: 2025/03/19
*-	*-
